; generated by PrusaSlicer 2.1.0+ on 2020-01-14 at 03:52:08 UTC

; 

; external perimeters extrusion width = 0.45mm
; perimeters extrusion width = 0.45mm
; infill extrusion width = 0.45mm
; solid infill extrusion width = 0.45mm
; top infill extrusion width = 0.40mm
; first layer extrusion width = 0.42mm

M73 P0 R52
M73 Q0 S52
M201 X1000 Y1000 Z1000 E5000 ; sets maximum accelerations, mm/sec^2
M203 X200 Y200 Z12 E120 ; sets maximum feedrates, mm/sec
M204 P1250 R1250 T1250 ; sets acceleration (P, T) and retract acceleration (R), mm/sec^2
M205 X8.00 Y8.00 Z0.40 E1.50 ; sets the jerk limits, mm/sec
M205 S0 T0 ; sets the minimum extruding and travel feed rate, mm/sec
M107
M115 U3.8.0 ; tell printer latest fw version
G90 ; use absolute coordinates
M83 ; extruder relative mode
M104 S215 ; set extruder temp
M140 S65 ; set bed temp
M190 S65 ; wait for bed temp
M109 S215 ; wait for extruder temp
G28 W ; home all without mesh bed level
G80 ; mesh bed leveling
G1 Y-3.0 F1000.0 ; go outside print area
G92 E0.0
G1 X60.0 E9.0 F1000.0 ; intro line
M73 Q0 S52
M73 P0 R52
G1 X100.0 E12.5 F1000.0 ; intro line
G92 E0.0
M221 S95
G21 ; set units to millimeters
G90 ; use absolute coordinates
M83 ; use relative distances for extrusion
M900 K30 ; Filament gcode
;BEFORE_LAYER_CHANGE
G92 E0.0
;0.2


G1 E-0.80000 F2100.00000
G1 Z0.600 F10800.000
;AFTER_LAYER_CHANGE
;0.2
G1 X209.632 Y8.806
G1 Z0.200
G1 E0.80000 F2100.00000
M204 S1000
G1 F1200
G1 X210.466 Y8.643 E0.02664
G1 X211.258 Y8.794 E0.02529
G1 X211.945 Y9.224 E0.02541
G1 X221.306 Y18.643 E0.41638
G1 X221.692 Y19.319 E0.02439
G1 X221.817 Y20.087 E0.02439
G1 X221.665 Y20.850 E0.02439
G1 X221.257 Y21.512 E0.02439
G1 X41.069 Y200.733 E7.96841
G1 X40.385 Y201.187 E0.02574
G1 X39.585 Y201.356 E0.02563
G1 X38.779 Y201.221 E0.02563
G1 X38.076 Y200.796 E0.02574
G1 X28.628 Y191.274 E0.42060
G1 X28.283 Y190.605 E0.02360
G1 X28.185 Y189.859 E0.02360
G1 X28.344 Y189.126 E0.02349
G1 X28.743 Y188.488 E0.02360
G1 X208.920 Y9.277 E7.96795
G1 X209.582 Y8.840 E0.02488
G1 F8640
G1 X210.466 Y8.643 E-0.20909
G1 X211.258 Y8.794 E-0.18628
G1 X211.945 Y9.224 E-0.18711
G1 X212.487 Y9.769 E-0.17752
G1 E-0.04000 F2100.00000
G1 Z0.800 F10800.000
G1 X43.546 Y186.013
G1 Z0.200
G1 E0.80000 F2100.00000
G1 F1200
G1 X44.556 Y188.009 E0.07015
G1 X44.200 Y190.216 E0.07010
G1 X42.615 Y191.793 E0.07009
G1 X40.406 Y192.137 E0.07010
G1 X38.417 Y191.116 E0.07010
G1 X37.408 Y189.122 E0.07010
G1 X37.763 Y186.915 E0.07010
G1 X39.348 Y185.338 E0.07009
G1 X41.539 Y184.997 E0.06951
G1 X43.492 Y185.986 E0.06864
G1 X43.265 Y186.294 F10800.000
G1 F1200
G1 X44.164 Y188.070 E0.06243
G1 X43.848 Y190.035 E0.06241
G1 X42.436 Y191.439 E0.06241
G1 X40.469 Y191.745 E0.06241
G1 X38.698 Y190.837 E0.06241
G1 X37.799 Y189.061 E0.06241
G1 X38.116 Y187.095 E0.06241
G1 X39.527 Y185.692 E0.06241
G1 X41.477 Y185.388 E0.06187
G1 X43.212 Y186.267 E0.06096
G1 X43.652 Y186.191 F10800.000
G1 F8640
G1 X44.164 Y188.070 E-0.47101
G1 X43.965 Y189.306 E-0.28899
G1 E-0.04000 F2100.00000
G1 Z0.800 F10800.000
G1 X122.435 Y107.551
G1 Z0.200
G1 E0.80000 F2100.00000
G1 F1200
G1 X121.426 Y105.556 E0.07010
G1 X121.781 Y103.349 E0.07010
G1 X123.366 Y101.773 E0.07010
G1 X125.557 Y101.432 E0.06951
G1 X127.564 Y102.448 E0.07052
G1 X128.574 Y104.444 E0.07015
G1 X128.219 Y106.651 E0.07010
G1 X126.633 Y108.227 E0.07010
G1 X124.424 Y108.571 E0.07010
G1 X122.489 Y107.578 E0.06821
G1 X122.716 Y107.271 F10800.000
G1 F1200
G1 X121.817 Y105.495 E0.06241
G1 X122.134 Y103.530 E0.06241
G1 X123.546 Y102.126 E0.06241
G1 X125.495 Y101.823 E0.06186
G1 X127.283 Y102.728 E0.06284
G1 X128.183 Y104.505 E0.06243
G1 X127.866 Y106.470 E0.06241
G1 X126.454 Y107.874 E0.06241
G1 X124.488 Y108.180 E0.06241
G1 X122.770 Y107.299 E0.06053
G1 X122.330 Y107.374 F10800.000
G1 F8640
G1 X121.817 Y105.495 E-0.47091
G1 X122.017 Y104.259 E-0.28909
G1 E-0.04000 F2100.00000
G1 Z0.800 F10800.000
G1 X206.454 Y23.985
G1 Z0.200
G1 E0.80000 F2100.00000
G1 F1200
G1 X205.444 Y21.991 E0.07010
G1 X205.800 Y19.784 E0.07010
G1 X207.385 Y18.207 E0.07009
G1 X209.575 Y17.866 E0.06951
G1 X211.582 Y18.882 E0.07053
G1 X212.592 Y20.878 E0.07015
G1 X212.237 Y23.085 E0.07010
G1 X210.652 Y24.662 E0.07009
G1 X208.443 Y25.006 E0.07010
G1 X206.507 Y24.013 E0.06822
G1 X206.735 Y23.706 F10800.000
G1 F1200
G1 X205.836 Y21.930 E0.06241
G1 X206.152 Y19.965 E0.06241
G1 X207.564 Y18.561 E0.06241
G1 X209.513 Y18.257 E0.06187
G1 X211.302 Y19.163 E0.06284
G1 X212.201 Y20.939 E0.06243
G1 X211.884 Y22.905 E0.06241
G1 X210.473 Y24.308 E0.06241
G1 X208.506 Y24.614 E0.06241
G1 X206.788 Y23.733 E0.06053
G1 X206.348 Y23.808 F10800.000
G1 F8640
G1 X205.836 Y21.930 E-0.47091
G1 X206.035 Y20.694 E-0.28909
G1 E-0.04000 F2100.00000
G1 Z0.800 F10800.000
G1 X218.798 Y20.047
G1 Z0.200
G1 E0.80000 F2100.00000
G1 F1200
G1 X39.541 Y198.338 E7.92718
G1 X31.202 Y189.953 E0.37079
G1 X210.459 Y11.662 E7.92718
M73 Q2 S51
M73 P2 R51
G1 X218.756 Y20.004 E0.36891
G1 X219.332 Y20.048 F10800.000
G1 F1200
G1 X39.540 Y198.871 E7.95082
G1 X30.668 Y189.952 E0.39444
G1 X210.460 Y11.129 E7.95082
G1 X219.289 Y20.006 E0.39256
G1 X219.043 Y20.326 F10800.000
G1 F8640
G1 X216.956 Y22.327 E-0.76000
G1 E-0.04000 F2100.00000
G1 Z0.800 F10800.000
G1 X218.273 Y20.410
G1 Z0.200
G1 E0.80000 F2100.00000
G1 F1200
G1 X210.191 Y12.328 E0.35841
G1 X209.923 Y12.594 E0.01183
G1 X217.886 Y20.556 E0.35309
G1 X217.618 Y20.822 E0.01183
G1 X209.656 Y12.859 E0.35309
G1 X209.389 Y13.125 E0.01183
G1 X217.351 Y21.088 E0.35309
G1 X217.083 Y21.354 E0.01183
G1 X209.121 Y13.391 E0.35309
G1 X208.854 Y13.657 E0.01183
G1 X216.816 Y21.620 E0.35309
G1 X216.549 Y21.885 E0.01183
G1 X208.586 Y13.923 E0.35309
G1 X208.319 Y14.189 E0.01183
G1 X216.281 Y22.151 E0.35309
G1 X216.014 Y22.417 E0.01183
G1 X208.052 Y14.455 E0.35309
G1 X207.784 Y14.721 E0.01183
G1 X215.746 Y22.683 E0.35309
G1 X215.479 Y22.949 E0.01183
G1 X212.398 Y19.868 E0.13662
G1 X212.886 Y20.833 E0.03389
G1 X212.878 Y20.882 E0.00156
G1 X215.212 Y23.215 E0.10348
G1 X214.944 Y23.481 E0.01183
G1 X212.804 Y21.341 E0.09490
G1 X212.730 Y21.800 E0.01459
G1 X214.677 Y23.747 E0.08633
G1 X214.410 Y24.013 E0.01183
G1 X212.656 Y22.260 E0.07775
G1 X212.582 Y22.719 E0.01459
G1 X214.142 Y24.279 E0.06918
G1 X213.875 Y24.545 E0.01183
G1 X212.508 Y23.178 E0.06060
G1 X212.501 Y23.221 E0.00136
G1 X212.259 Y23.462 E0.01072
G1 X213.607 Y24.811 E0.05980
G1 X213.340 Y25.077 E0.01183
G1 X211.992 Y23.728 E0.05980
G1 X211.724 Y23.994 E0.01183
G1 X213.073 Y25.343 E0.05980
G1 X212.805 Y25.609 E0.01183
G1 X211.457 Y24.260 E0.05980
G1 X211.189 Y24.526 E0.01183
G1 X212.538 Y25.875 E0.05980
G1 X212.271 Y26.141 E0.01183
G1 X210.922 Y24.792 E0.05980
G1 X210.786 Y24.927 E0.00601
G1 X210.559 Y24.963 E0.00720
G1 X212.003 Y26.406 E0.06403
G1 X211.736 Y26.672 E0.01183
G1 X210.098 Y25.034 E0.07264
G1 X209.636 Y25.106 E0.01465
G1 X211.468 Y26.938 E0.08125
G1 X211.201 Y27.204 E0.01183
G1 X209.175 Y25.178 E0.08986
G1 X208.713 Y25.250 E0.01465
G1 X210.934 Y27.470 E0.09847
G1 X210.666 Y27.736 E0.01183
G1 X207.663 Y24.733 E0.13319
G1 X206.960 Y24.563 F10800.000
G1 F1200
G1 X210.399 Y28.002 E0.15252
G1 X210.131 Y28.268 E0.01183
G1 X202.169 Y20.306 E0.35309
G1 X201.902 Y20.572 E0.01183
G1 X209.864 Y28.534 E0.35309
G1 X209.597 Y28.800 E0.01183
G1 X201.634 Y20.838 E0.35309
G1 X201.367 Y21.104 E0.01183
G1 X209.329 Y29.066 E0.35309
G1 X209.062 Y29.332 E0.01183
G1 X201.100 Y21.370 E0.35309
G1 X200.832 Y21.636 E0.01183
G1 X208.795 Y29.598 E0.35309
G1 X208.527 Y29.864 E0.01183
G1 X200.565 Y21.901 E0.35309
G1 X200.298 Y22.167 E0.01183
G1 X208.260 Y30.130 E0.35309
G1 X207.992 Y30.396 E0.01183
G1 X200.030 Y22.433 E0.35309
G1 X199.763 Y22.699 E0.01183
G1 X207.725 Y30.662 E0.35309
G1 X207.458 Y30.927 E0.01183
G1 X199.495 Y22.965 E0.35309
G1 X199.228 Y23.231 E0.01183
G1 X207.190 Y31.193 E0.35309
G1 X206.923 Y31.459 E0.01183
G1 X198.961 Y23.497 E0.35309
G1 X198.693 Y23.763 E0.01183
G1 X206.656 Y31.725 E0.35309
G1 X206.388 Y31.991 E0.01183
G1 X198.426 Y24.029 E0.35309
G1 X198.159 Y24.295 E0.01183
G1 X206.121 Y32.257 E0.35309
G1 X205.853 Y32.523 E0.01183
G1 X197.891 Y24.561 E0.35309
G1 X197.624 Y24.827 E0.01183
G1 X205.586 Y32.789 E0.35309
G1 X205.319 Y33.055 E0.01183
G1 X197.356 Y25.093 E0.35309
G1 X197.089 Y25.359 E0.01183
G1 X205.051 Y33.321 E0.35309
G1 X204.784 Y33.587 E0.01183
G1 X196.822 Y25.625 E0.35309
G1 X196.554 Y25.891 E0.01183
G1 X204.516 Y33.853 E0.35309
G1 X204.249 Y34.119 E0.01183
G1 X196.287 Y26.157 E0.35309
G1 X196.019 Y26.422 E0.01183
G1 X203.982 Y34.385 E0.35309
G1 X203.714 Y34.651 E0.01183
G1 X195.752 Y26.688 E0.35309
G1 X195.485 Y26.954 E0.01183
G1 X203.447 Y34.917 E0.35309
G1 X203.180 Y35.183 E0.01183
G1 X195.217 Y27.220 E0.35309
G1 X194.950 Y27.486 E0.01183
G1 X202.912 Y35.448 E0.35309
G1 X202.645 Y35.714 E0.01183
G1 X194.683 Y27.752 E0.35309
G1 X194.415 Y28.018 E0.01183
G1 X202.377 Y35.980 E0.35309
G1 X202.110 Y36.246 E0.01183
G1 X194.148 Y28.284 E0.35309
G1 X193.880 Y28.550 E0.01183
G1 X201.843 Y36.512 E0.35309
G1 X201.575 Y36.778 E0.01183
G1 X193.613 Y28.816 E0.35309
G1 X193.346 Y29.082 E0.01183
G1 X201.308 Y37.044 E0.35309
G1 X201.041 Y37.310 E0.01183
G1 X193.078 Y29.348 E0.35309
G1 X192.811 Y29.614 E0.01183
G1 X200.773 Y37.576 E0.35309
G1 X200.506 Y37.842 E0.01183
G1 X192.543 Y29.880 E0.35309
G1 X192.276 Y30.146 E0.01183
G1 X200.238 Y38.108 E0.35309
G1 X199.971 Y38.374 E0.01183
G1 X192.009 Y30.412 E0.35309
G1 X191.741 Y30.678 E0.01183
G1 X199.704 Y38.640 E0.35309
M73 Q4 S50
M73 P4 R49
G1 X199.436 Y38.906 E0.01183
G1 X191.474 Y30.943 E0.35309
G1 X191.207 Y31.209 E0.01183
G1 X199.169 Y39.172 E0.35309
G1 X198.901 Y39.438 E0.01183
G1 X190.939 Y31.475 E0.35309
G1 X190.672 Y31.741 E0.01183
G1 X198.634 Y39.704 E0.35309
G1 X198.367 Y39.969 E0.01183
G1 X190.404 Y32.007 E0.35309
G1 X190.137 Y32.273 E0.01183
G1 X198.099 Y40.235 E0.35309
G1 X197.832 Y40.501 E0.01183
G1 X189.870 Y32.539 E0.35309
G1 X189.602 Y32.805 E0.01183
G1 X197.565 Y40.767 E0.35309
G1 X197.297 Y41.033 E0.01183
G1 X189.335 Y33.071 E0.35309
G1 X189.068 Y33.337 E0.01183
G1 X197.030 Y41.299 E0.35309
G1 X196.762 Y41.565 E0.01183
G1 X188.800 Y33.603 E0.35309
G1 X188.533 Y33.869 E0.01183
G1 X196.495 Y41.831 E0.35309
G1 X196.228 Y42.097 E0.01183
G1 X188.265 Y34.135 E0.35309
G1 X187.998 Y34.401 E0.01183
G1 X195.960 Y42.363 E0.35309
G1 X195.693 Y42.629 E0.01183
G1 X187.731 Y34.667 E0.35309
G1 X187.463 Y34.933 E0.01183
G1 X195.425 Y42.895 E0.35309
G1 X195.158 Y43.161 E0.01183
G1 X187.196 Y35.198 E0.35309
G1 X186.928 Y35.464 E0.01183
G1 X194.891 Y43.427 E0.35309
G1 X194.623 Y43.693 E0.01183
G1 X186.661 Y35.730 E0.35309
G1 X186.394 Y35.996 E0.01183
G1 X194.356 Y43.959 E0.35309
G1 X194.089 Y44.225 E0.01183
G1 X186.126 Y36.262 E0.35309
G1 X185.859 Y36.528 E0.01183
G1 X193.821 Y44.490 E0.35309
G1 X193.554 Y44.756 E0.01183
G1 X185.592 Y36.794 E0.35309
G1 X185.324 Y37.060 E0.01183
G1 X193.286 Y45.022 E0.35309
G1 X193.019 Y45.288 E0.01183
G1 X185.057 Y37.326 E0.35309
G1 X184.789 Y37.592 E0.01183
G1 X192.752 Y45.554 E0.35309
G1 X192.484 Y45.820 E0.01183
G1 X184.522 Y37.858 E0.35309
G1 X184.255 Y38.124 E0.01183
G1 X192.217 Y46.086 E0.35309
G1 X191.950 Y46.352 E0.01183
G1 X183.987 Y38.390 E0.35309
G1 X183.720 Y38.656 E0.01183
G1 X191.682 Y46.618 E0.35309
G1 X191.415 Y46.884 E0.01183
G1 X183.453 Y38.922 E0.35309
G1 X183.185 Y39.188 E0.01183
G1 X191.147 Y47.150 E0.35309
G1 X190.880 Y47.416 E0.01183
G1 X182.918 Y39.454 E0.35309
G1 X182.650 Y39.719 E0.01183
G1 X190.613 Y47.682 E0.35309
G1 X190.345 Y47.948 E0.01183
G1 X182.383 Y39.985 E0.35309
G1 X182.116 Y40.251 E0.01183
G1 X190.078 Y48.214 E0.35309
G1 X189.810 Y48.480 E0.01183
G1 X181.848 Y40.517 E0.35309
G1 X181.581 Y40.783 E0.01183
G1 X189.543 Y48.745 E0.35309
G1 X189.276 Y49.011 E0.01183
G1 X181.313 Y41.049 E0.35309
G1 X181.046 Y41.315 E0.01183
G1 X189.008 Y49.277 E0.35309
G1 X188.741 Y49.543 E0.01183
G1 X180.779 Y41.581 E0.35309
G1 X180.511 Y41.847 E0.01183
G1 X188.474 Y49.809 E0.35309
G1 X188.206 Y50.075 E0.01183
G1 X180.244 Y42.113 E0.35309
G1 X179.977 Y42.379 E0.01183
G1 X187.939 Y50.341 E0.35309
G1 X187.671 Y50.607 E0.01183
G1 X179.709 Y42.645 E0.35309
G1 X179.442 Y42.911 E0.01183
G1 X187.404 Y50.873 E0.35309
G1 X187.137 Y51.139 E0.01183
G1 X179.174 Y43.177 E0.35309
G1 X178.907 Y43.443 E0.01183
G1 X186.869 Y51.405 E0.35309
G1 X186.602 Y51.671 E0.01183
G1 X178.640 Y43.709 E0.35309
G1 X178.372 Y43.975 E0.01183
G1 X186.335 Y51.937 E0.35309
G1 X186.067 Y52.203 E0.01183
G1 X178.105 Y44.240 E0.35309
G1 X177.838 Y44.506 E0.01183
G1 X185.800 Y52.469 E0.35309
G1 X185.532 Y52.735 E0.01183
G1 X177.570 Y44.772 E0.35309
G1 X177.303 Y45.038 E0.01183
G1 X185.265 Y53.001 E0.35309
G1 X184.998 Y53.266 E0.01183
G1 X177.035 Y45.304 E0.35309
G1 X176.768 Y45.570 E0.01183
G1 X184.730 Y53.532 E0.35309
G1 X184.463 Y53.798 E0.01183
G1 X176.501 Y45.836 E0.35309
G1 X176.233 Y46.102 E0.01183
G1 X184.195 Y54.064 E0.35309
G1 X183.928 Y54.330 E0.01183
G1 X175.966 Y46.368 E0.35309
G1 X175.698 Y46.634 E0.01183
G1 X183.661 Y54.596 E0.35309
G1 X183.393 Y54.862 E0.01183
G1 X175.431 Y46.900 E0.35309
G1 X175.164 Y47.166 E0.01183
G1 X183.126 Y55.128 E0.35309
G1 X182.859 Y55.394 E0.01183
G1 X174.896 Y47.432 E0.35309
G1 X174.629 Y47.698 E0.01183
G1 X182.591 Y55.660 E0.35309
G1 X182.324 Y55.926 E0.01183
G1 X174.362 Y47.964 E0.35309
G1 X174.094 Y48.230 E0.01183
G1 X182.056 Y56.192 E0.35309
G1 X181.789 Y56.458 E0.01183
G1 X173.827 Y48.496 E0.35309
G1 X173.559 Y48.761 E0.01183
G1 X181.522 Y56.724 E0.35309
G1 X181.254 Y56.990 E0.01183
G1 X173.292 Y49.027 E0.35309
G1 X173.025 Y49.293 E0.01183
G1 X180.987 Y57.256 E0.35309
G1 X180.719 Y57.522 E0.01183
G1 X172.757 Y49.559 E0.35309
G1 X172.490 Y49.825 E0.01183
G1 X180.452 Y57.787 E0.35309
G1 X180.185 Y58.053 E0.01183
G1 X172.222 Y50.091 E0.35309
G1 X171.955 Y50.357 E0.01183
G1 X179.917 Y58.319 E0.35309
G1 X179.650 Y58.585 E0.01183
G1 X171.688 Y50.623 E0.35309
G1 X171.420 Y50.889 E0.01183
G1 X179.383 Y58.851 E0.35309
G1 X179.115 Y59.117 E0.01183
G1 X171.153 Y51.155 E0.35309
G1 X170.886 Y51.421 E0.01183
G1 X178.848 Y59.383 E0.35309
G1 X178.580 Y59.649 E0.01183
G1 X170.618 Y51.687 E0.35309
G1 X170.351 Y51.953 E0.01183
G1 X178.313 Y59.915 E0.35309
G1 X178.046 Y60.181 E0.01183
G1 X170.083 Y52.219 E0.35309
G1 X169.816 Y52.485 E0.01183
G1 X177.778 Y60.447 E0.35309
G1 X177.511 Y60.713 E0.01183
G1 X169.549 Y52.751 E0.35309
G1 X169.281 Y53.017 E0.01183
G1 X177.244 Y60.979 E0.35309
G1 X176.976 Y61.245 E0.01183
G1 X169.014 Y53.282 E0.35309
G1 X168.747 Y53.548 E0.01183
G1 X176.709 Y61.511 E0.35309
G1 X176.441 Y61.777 E0.01183
G1 X168.479 Y53.814 E0.35309
G1 X168.212 Y54.080 E0.01183
G1 X176.174 Y62.043 E0.35309
G1 X175.907 Y62.308 E0.01183
G1 X167.944 Y54.346 E0.35309
G1 X167.677 Y54.612 E0.01183
G1 X175.639 Y62.574 E0.35309
G1 X175.372 Y62.840 E0.01183
G1 X167.410 Y54.878 E0.35309
G1 X167.142 Y55.144 E0.01183
G1 X175.104 Y63.106 E0.35309
G1 X174.837 Y63.372 E0.01183
G1 X166.875 Y55.410 E0.35309
G1 X166.607 Y55.676 E0.01183
G1 X174.570 Y63.638 E0.35309
G1 X174.302 Y63.904 E0.01183
G1 X166.340 Y55.942 E0.35309
G1 X166.073 Y56.208 E0.01183
G1 X174.035 Y64.170 E0.35309
G1 X173.768 Y64.436 E0.01183
G1 X165.805 Y56.474 E0.35309
G1 X165.538 Y56.740 E0.01183
G1 X173.500 Y64.702 E0.35309
G1 X173.233 Y64.968 E0.01183
G1 X165.271 Y57.006 E0.35309
G1 X165.003 Y57.272 E0.01183
G1 X172.965 Y65.234 E0.35309
G1 X172.698 Y65.500 E0.01183
G1 X164.736 Y57.538 E0.35309
G1 X164.468 Y57.803 E0.01183
G1 X172.431 Y65.766 E0.35309
M73 Q6 S49
M73 P6 R48
G1 X172.163 Y66.032 E0.01183
G1 X164.201 Y58.069 E0.35309
G1 X163.934 Y58.335 E0.01183
G1 X171.896 Y66.298 E0.35309
G1 X171.629 Y66.564 E0.01183
G1 X163.666 Y58.601 E0.35309
G1 X163.399 Y58.867 E0.01183
G1 X171.361 Y66.829 E0.35309
G1 X171.094 Y67.095 E0.01183
G1 X163.132 Y59.133 E0.35309
G1 X162.864 Y59.399 E0.01183
G1 X170.826 Y67.361 E0.35309
G1 X170.559 Y67.627 E0.01183
G1 X162.597 Y59.665 E0.35309
G1 X162.329 Y59.931 E0.01183
G1 X170.292 Y67.893 E0.35309
G1 X170.024 Y68.159 E0.01183
G1 X162.062 Y60.197 E0.35309
G1 X161.795 Y60.463 E0.01183
G1 X169.757 Y68.425 E0.35309
G1 X169.489 Y68.691 E0.01183
G1 X161.527 Y60.729 E0.35309
G1 X161.260 Y60.995 E0.01183
