; generated by PrusaSlicer 2.1.0+ on 2020-01-14 at 02:57:47 UTC

; 

; external perimeters extrusion width = 0.45mm
; perimeters extrusion width = 0.45mm
; infill extrusion width = 0.45mm
; solid infill extrusion width = 0.45mm
; top infill extrusion width = 0.40mm
; first layer extrusion width = 0.42mm

M73 P0 R32
M73 Q0 S33
M201 X1000 Y1000 Z1000 E5000 ; sets maximum accelerations, mm/sec^2
M203 X200 Y200 Z12 E120 ; sets maximum feedrates, mm/sec
M204 P1250 R1250 T1250 ; sets acceleration (P, T) and retract acceleration (R), mm/sec^2
M205 X8.00 Y8.00 Z0.40 E1.50 ; sets the jerk limits, mm/sec
M205 S0 T0 ; sets the minimum extruding and travel feed rate, mm/sec
M107
M115 U3.8.0 ; tell printer latest fw version
G90 ; use absolute coordinates
M83 ; extruder relative mode
M104 S215 ; set extruder temp
M140 S65 ; set bed temp
M190 S65 ; wait for bed temp
M109 S215 ; wait for extruder temp
G28 W ; home all without mesh bed level
G80 ; mesh bed leveling
G1 Y-3.0 F1000.0 ; go outside print area
G92 E0.0
G1 X60.0 E9.0 F1000.0 ; intro line
M73 Q0 S33
M73 P0 R32
G1 X100.0 E12.5 F1000.0 ; intro line
G92 E0.0
M221 S95
G21 ; set units to millimeters
G90 ; use absolute coordinates
M83 ; use relative distances for extrusion
M900 K30 ; Filament gcode
;BEFORE_LAYER_CHANGE
G92 E0.0
;0.2


G1 E-0.80000 F2100.00000
G1 Z0.600 F10800.000
;AFTER_LAYER_CHANGE
;0.2
G1 X55.557 Y96.525
G1 Z0.200
G1 E0.80000 F2100.00000
M204 S1000
G1 F1200
G1 X56.257 Y96.325 E0.02281
G1 X193.504 Y96.311 E4.30327
G1 X194.334 Y96.476 E0.02653
G1 X195.039 Y96.944 E0.02653
G1 X195.514 Y97.644 E0.02653
G1 X195.688 Y98.469 E0.02642
G1 X195.671 Y111.777 E0.41728
G1 X195.460 Y112.473 E0.02281
G1 X195.035 Y113.060 E0.02270
G1 X194.443 Y113.475 E0.02270
G1 X193.743 Y113.675 E0.02281
G1 X56.471 Y113.688 E4.30407
G1 X55.697 Y113.536 E0.02473
G1 X55.030 Y113.121 E0.02462
G1 X54.551 Y112.495 E0.02473
G1 X54.325 Y111.743 E0.02462
G1 X54.329 Y98.227 E0.42379
G1 X54.537 Y97.533 E0.02270
G1 X54.962 Y96.943 E0.02281
G1 X55.508 Y96.559 E0.02093
G1 F8640
G1 X56.257 Y96.325 E-0.18114
G1 X58.764 Y96.325 E-0.57886
G1 E-0.04000 F2100.00000
G1 Z0.800 F10800.000
G1 X62.073 Y102.874
G1 Z0.200
G1 E0.80000 F2100.00000
G1 F1200
G1 X63.882 Y101.560 E0.07010
G1 X66.118 Y101.560 E0.07010
G1 X67.927 Y102.874 E0.07010
G1 X68.617 Y105.000 E0.07010
G1 X67.927 Y107.126 E0.07010
G1 X66.118 Y108.440 E0.07010
G1 X63.882 Y108.440 E0.07010
G1 X62.073 Y107.126 E0.07010
G1 X61.383 Y105.000 E0.07010
G1 X62.055 Y102.931 E0.06821
G1 X62.394 Y103.107 F10800.000
G1 F1200
G1 X64.005 Y101.937 E0.06241
G1 X65.995 Y101.937 E0.06242
G1 X67.606 Y103.107 E0.06241
G1 X68.221 Y105.000 E0.06241
G1 X67.606 Y106.893 E0.06241
G1 X65.995 Y108.063 E0.06241
G1 X64.005 Y108.063 E0.06242
G1 X62.394 Y106.893 E0.06241
G1 X61.779 Y105.000 E0.06241
G1 X62.376 Y103.164 E0.06053
G1 X62.232 Y102.741 F10800.000
G1 F8640
G1 X64.005 Y101.937 E-0.47091
G1 X65.257 Y101.937 E-0.28909
G1 E-0.04000 F2100.00000
G1 Z0.800 F10800.000
G1 X181.383 Y105.000
G1 Z0.200
G1 E0.80000 F2100.00000
G1 F1200
G1 X182.073 Y102.874 E0.07010
G1 X183.882 Y101.560 E0.07010
G1 X186.118 Y101.560 E0.07010
G1 X187.927 Y102.874 E0.07010
G1 X188.617 Y105.000 E0.07010
G1 X187.927 Y107.126 E0.07010
G1 X186.118 Y108.440 E0.07010
G1 X183.882 Y108.440 E0.07010
G1 X182.073 Y107.126 E0.07010
G1 X181.401 Y105.057 E0.06821
G1 X181.779 Y105.000 F10800.000
G1 F1200
G1 X182.394 Y103.107 E0.06241
G1 X184.005 Y101.937 E0.06241
G1 X185.995 Y101.937 E0.06242
G1 X187.606 Y103.107 E0.06241
G1 X188.221 Y105.000 E0.06241
G1 X187.606 Y106.893 E0.06241
G1 X185.995 Y108.063 E0.06241
G1 X184.005 Y108.063 E0.06242
G1 X182.394 Y106.893 E0.06241
G1 X181.798 Y105.057 E0.06053
G1 X181.433 Y104.800 F10800.000
G1 F8640
G1 X182.394 Y103.107 E-0.47090
G1 X183.407 Y102.371 E-0.28910
G1 E-0.04000 F2100.00000
G1 Z0.800 F10800.000
G1 X192.913 Y110.913
G1 Z0.200
G1 E0.80000 F2100.00000
G1 F1200
G1 X57.087 Y110.913 E4.25872
G1 X57.087 Y99.087 E0.37079
G1 X192.913 Y99.087 E4.25872
G1 X192.913 Y110.853 E0.36891
G1 X193.290 Y111.290 F10800.000
G1 F1200
G1 X56.710 Y111.290 E4.28237
G1 X56.710 Y98.710 E0.39444
G1 X193.290 Y98.710 E4.28237
G1 X193.290 Y111.230 E0.39256
G1 X192.890 Y111.278 F10800.000
G1 F8640
G1 X189.999 Y111.231 E-0.76000
G1 E-0.04000 F2100.00000
G1 Z0.800 F10800.000
G1 X192.800 Y107.967
G1 Z0.200
G1 E0.80000 F2100.00000
G1 F1200
G1 X188.473 Y103.640 E0.19199
G1 X188.730 Y104.430 E0.02607
G1 X192.630 Y108.331 E0.17307
G1 X192.630 Y108.865 E0.01674
G1 X188.878 Y105.112 E0.16648
G1 X188.747 Y105.515 E0.01329
G1 X192.630 Y109.398 E0.17228
G1 X192.630 Y109.932 E0.01674
G1 X188.616 Y105.918 E0.17809
G1 X188.486 Y106.321 E0.01329
G1 X192.630 Y110.465 E0.18389
G1 X192.630 Y110.630 E0.00517
G1 X192.261 Y110.630 E0.01157
G1 X188.355 Y106.723 E0.17334
G1 X188.224 Y107.126 E0.01329
G1 X191.728 Y110.630 E0.15547
G1 X191.194 Y110.630 E0.01674
G1 X187.992 Y107.428 E0.14207
G1 X187.683 Y107.653 E0.01199
G1 X190.661 Y110.630 E0.13211
G1 X190.127 Y110.630 E0.01674
G1 X187.374 Y107.877 E0.12215
G1 X187.065 Y108.102 E0.01199
G1 X189.593 Y110.630 E0.11218
G1 X189.060 Y110.630 E0.01674
M73 Q3 S32
G1 X186.756 Y108.326 E0.10222
G1 X186.447 Y108.551 E0.01199
G1 X188.526 Y110.630 E0.09226
G1 X187.993 Y110.630 E0.01674
G1 X186.085 Y108.723 E0.08462
G1 X185.552 Y108.723 E0.01674
G1 X187.459 Y110.630 E0.08462
G1 X186.925 Y110.630 E0.01674
G1 X185.018 Y108.723 E0.08462
M73 P3 R31
G1 X184.485 Y108.723 E0.01674
G1 X186.392 Y110.630 E0.08462
G1 X185.858 Y110.630 E0.01674
G1 X183.611 Y108.383 E0.09970
G1 F8640
G1 X185.858 Y110.630 E-0.73374
G1 X185.972 Y110.630 E-0.02626
G1 E-0.04000 F2100.00000
G1 Z0.800 F10800.000
G1 X181.762 Y106.534
G1 Z0.200
G1 E0.80000 F2100.00000
G1 F1200
G1 X174.598 Y99.370 E0.31788
G1 X175.131 Y99.370 E0.01674
G1 X181.241 Y105.480 E0.27108
G1 X181.085 Y105.000 E0.01582
G1 X181.137 Y104.842 E0.00522
G1 X175.665 Y99.370 E0.24278
G1 X176.199 Y99.370 E0.01674
G1 X181.268 Y104.439 E0.22491
G1 X181.399 Y104.036 E0.01329
G1 X176.732 Y99.370 E0.20704
G1 X177.266 Y99.370 E0.01674
G1 X181.529 Y103.633 E0.18917
G1 X181.660 Y103.231 E0.01329
G1 X177.799 Y99.370 E0.17130
G1 X178.333 Y99.370 E0.01674
G1 X181.791 Y102.828 E0.15343
G1 X181.833 Y102.699 E0.00425
G1 X182.043 Y102.546 E0.00815
G1 X178.867 Y99.370 E0.14094
G1 X179.400 Y99.370 E0.01674
G1 X182.352 Y102.322 E0.13097
G1 X182.661 Y102.097 E0.01199
G1 X179.934 Y99.370 E0.12101
G1 X180.467 Y99.370 E0.01674
G1 X182.970 Y101.873 E0.11105
G1 X183.279 Y101.648 E0.01199
G1 X181.001 Y99.370 E0.10109
G1 X181.535 Y99.370 E0.01674
G1 X183.588 Y101.424 E0.09112
G1 X183.790 Y101.277 E0.00783
G1 X183.975 Y101.277 E0.00581
G1 X182.068 Y99.370 E0.08462
G1 X182.602 Y99.370 E0.01674
G1 X184.509 Y101.277 E0.08462
G1 X185.043 Y101.277 E0.01674
G1 X183.135 Y99.370 E0.08462
G1 X183.669 Y99.370 E0.01674
G1 X185.576 Y101.277 E0.08462
G1 X186.110 Y101.277 E0.01674
G1 X184.203 Y99.370 E0.08462
G1 X184.736 Y99.370 E0.01674
G1 X192.630 Y107.264 E0.35024
G1 X192.630 Y106.730 E0.01674
G1 X185.270 Y99.370 E0.32657
G1 X185.804 Y99.370 E0.01674
G1 X192.630 Y106.196 E0.30289
G1 X192.630 Y105.663 E0.01674
G1 X186.337 Y99.370 E0.27922
G1 X186.871 Y99.370 E0.01674
G1 X192.630 Y105.129 E0.25554
G1 X192.630 Y104.596 E0.01674
G1 X187.404 Y99.370 E0.23187
G1 X187.938 Y99.370 E0.01674
G1 X192.630 Y104.062 E0.20819
G1 X192.630 Y103.528 E0.01674
G1 X188.472 Y99.370 E0.18451
G1 X189.005 Y99.370 E0.01674
G1 X192.630 Y102.995 E0.16084
G1 X192.630 Y102.461 E0.01674
G1 X189.539 Y99.370 E0.13716
G1 X190.072 Y99.370 E0.01674
G1 X192.630 Y101.928 E0.11349
G1 X192.630 Y101.394 E0.01674
G1 X190.606 Y99.370 E0.08981
G1 X191.140 Y99.370 E0.01674
G1 X192.630 Y100.860 E0.06614
G1 X192.630 Y100.327 E0.01674
G1 X191.673 Y99.370 E0.04246
G1 X192.207 Y99.370 E0.01674
G1 X192.800 Y99.963 E0.02631
G1 F8640
G1 X192.207 Y99.370 E-0.19367
G1 X191.673 Y99.370 E-0.12321
G1 X192.630 Y100.327 E-0.31250
G1 X192.630 Y100.860 E-0.12321
G1 X192.607 Y100.838 E-0.00741
G1 E-0.04000 F2100.00000
G1 Z0.800 F10800.000
G1 X185.494 Y110.800
G1 Z0.200
G1 E0.80000 F2100.00000
G1 F1200
G1 X174.064 Y99.370 E0.50714
G1 X173.531 Y99.370 E0.01674
G1 X184.791 Y110.630 E0.49961
G1 X184.257 Y110.630 E0.01674
G1 X172.997 Y99.370 E0.49961
G1 X172.463 Y99.370 E0.01674
G1 X183.724 Y110.630 E0.49961
G1 X183.190 Y110.630 E0.01674
G1 X171.930 Y99.370 E0.49961
G1 X171.396 Y99.370 E0.01674
G1 X182.657 Y110.630 E0.49961
G1 X182.123 Y110.630 E0.01674
G1 X170.863 Y99.370 E0.49961
G1 X170.329 Y99.370 E0.01674
G1 X181.589 Y110.630 E0.49961
G1 X181.056 Y110.630 E0.01674
G1 X169.795 Y99.370 E0.49961
G1 X169.262 Y99.370 E0.01674
G1 X180.522 Y110.630 E0.49961
G1 X179.988 Y110.630 E0.01674
G1 X168.728 Y99.370 E0.49961
G1 X168.195 Y99.370 E0.01674
G1 X179.455 Y110.630 E0.49961
G1 X178.921 Y110.630 E0.01674
G1 X167.661 Y99.370 E0.49961
G1 X167.127 Y99.370 E0.01674
G1 X178.388 Y110.630 E0.49961
G1 X177.854 Y110.630 E0.01674
G1 X166.594 Y99.370 E0.49961
G1 X166.060 Y99.370 E0.01674
G1 X177.320 Y110.630 E0.49961
G1 X176.787 Y110.630 E0.01674
G1 X165.527 Y99.370 E0.49961
G1 X164.993 Y99.370 E0.01674
G1 X176.253 Y110.630 E0.49961
G1 X175.720 Y110.630 E0.01674
G1 X164.459 Y99.370 E0.49961
G1 X163.926 Y99.370 E0.01674
G1 X175.186 Y110.630 E0.49961
G1 X174.652 Y110.630 E0.01674
G1 X163.392 Y99.370 E0.49961
G1 X162.859 Y99.370 E0.01674
G1 X174.119 Y110.630 E0.49961
G1 X173.585 Y110.630 E0.01674
G1 X162.325 Y99.370 E0.49961
G1 X161.791 Y99.370 E0.01674
G1 X173.052 Y110.630 E0.49961
G1 X172.518 Y110.630 E0.01674
G1 X161.258 Y99.370 E0.49961
G1 X160.724 Y99.370 E0.01674
G1 X171.984 Y110.630 E0.49961
G1 X171.451 Y110.630 E0.01674
G1 X160.191 Y99.370 E0.49961
G1 X159.657 Y99.370 E0.01674
G1 X170.917 Y110.630 E0.49961
G1 X170.384 Y110.630 E0.01674
G1 X159.123 Y99.370 E0.49961
G1 X158.590 Y99.370 E0.01674
G1 X169.850 Y110.630 E0.49961
G1 X169.316 Y110.630 E0.01674
G1 X158.056 Y99.370 E0.49961
G1 X157.523 Y99.370 E0.01674
G1 X168.783 Y110.630 E0.49961
G1 X168.249 Y110.630 E0.01674
G1 X156.989 Y99.370 E0.49961
G1 X156.455 Y99.370 E0.01674
G1 X167.716 Y110.630 E0.49961
G1 X167.182 Y110.630 E0.01674
G1 X155.922 Y99.370 E0.49961
G1 X155.388 Y99.370 E0.01674
G1 X166.648 Y110.630 E0.49961
G1 X166.115 Y110.630 E0.01674
G1 X154.855 Y99.370 E0.49961
G1 X154.321 Y99.370 E0.01674
G1 X165.581 Y110.630 E0.49961
G1 X165.048 Y110.630 E0.01674
G1 X153.787 Y99.370 E0.49961
G1 X153.254 Y99.370 E0.01674
G1 X164.514 Y110.630 E0.49961
G1 X163.980 Y110.630 E0.01674
G1 X152.720 Y99.370 E0.49961
G1 X152.187 Y99.370 E0.01674
G1 X163.447 Y110.630 E0.49961
G1 X162.913 Y110.630 E0.01674
G1 X151.653 Y99.370 E0.49961
G1 X151.119 Y99.370 E0.01674
G1 X162.380 Y110.630 E0.49961
G1 X161.846 Y110.630 E0.01674
G1 X150.586 Y99.370 E0.49961
G1 X150.052 Y99.370 E0.01674
G1 X161.312 Y110.630 E0.49961
G1 X160.779 Y110.630 E0.01674
G1 X149.519 Y99.370 E0.49961
G1 X148.985 Y99.370 E0.01674
G1 X160.245 Y110.630 E0.49961
G1 X159.712 Y110.630 E0.01674
G1 X148.451 Y99.370 E0.49961
G1 X147.918 Y99.370 E0.01674
G1 X159.178 Y110.630 E0.49961
G1 X158.644 Y110.630 E0.01674
G1 X147.384 Y99.370 E0.49961
G1 X146.851 Y99.370 E0.01674
G1 X158.111 Y110.630 E0.49961
G1 X157.577 Y110.630 E0.01674
G1 X146.317 Y99.370 E0.49961
G1 X145.783 Y99.370 E0.01674
G1 X157.044 Y110.630 E0.49961
G1 X156.510 Y110.630 E0.01674
G1 X145.250 Y99.370 E0.49961
G1 X144.716 Y99.370 E0.01674
G1 X155.976 Y110.630 E0.49961
G1 X155.443 Y110.630 E0.01674
G1 X144.183 Y99.370 E0.49961
M73 Q6 S31
G1 X143.649 Y99.370 E0.01674
G1 X154.909 Y110.630 E0.49961
G1 X154.376 Y110.630 E0.01674
M73 P6 R30
G1 X143.115 Y99.370 E0.49961
G1 X142.582 Y99.370 E0.01674
G1 X153.842 Y110.630 E0.49961
G1 X153.308 Y110.630 E0.01674
G1 X142.048 Y99.370 E0.49961
G1 X141.514 Y99.370 E0.01674
G1 X152.775 Y110.630 E0.49961
G1 X152.241 Y110.630 E0.01674
G1 X140.981 Y99.370 E0.49961
G1 X140.447 Y99.370 E0.01674
G1 X151.708 Y110.630 E0.49961
G1 X151.174 Y110.630 E0.01674
G1 X139.914 Y99.370 E0.49961
G1 X139.380 Y99.370 E0.01674
G1 X150.640 Y110.630 E0.49961
G1 X150.107 Y110.630 E0.01674
G1 X138.846 Y99.370 E0.49961
G1 X138.313 Y99.370 E0.01674
G1 X149.573 Y110.630 E0.49961
G1 X149.040 Y110.630 E0.01674
G1 X137.779 Y99.370 E0.49961
G1 X137.246 Y99.370 E0.01674
G1 X148.506 Y110.630 E0.49961
G1 X147.972 Y110.630 E0.01674
G1 X136.712 Y99.370 E0.49961
G1 X136.178 Y99.370 E0.01674
G1 X147.439 Y110.630 E0.49961
G1 X146.905 Y110.630 E0.01674
G1 X135.645 Y99.370 E0.49961
G1 X135.111 Y99.370 E0.01674
G1 X146.372 Y110.630 E0.49961
G1 X145.838 Y110.630 E0.01674
G1 X134.578 Y99.370 E0.49961
G1 X134.044 Y99.370 E0.01674
G1 X145.304 Y110.630 E0.49961
G1 X144.771 Y110.630 E0.01674
G1 X133.510 Y99.370 E0.49961
G1 X132.977 Y99.370 E0.01674
G1 X144.237 Y110.630 E0.49961
G1 X143.704 Y110.630 E0.01674
G1 X132.443 Y99.370 E0.49961
G1 X131.910 Y99.370 E0.01674
G1 X143.170 Y110.630 E0.49961
G1 X142.636 Y110.630 E0.01674
G1 X131.376 Y99.370 E0.49961
G1 X130.842 Y99.370 E0.01674
G1 X142.103 Y110.630 E0.49961
G1 X141.569 Y110.630 E0.01674
G1 X130.309 Y99.370 E0.49961
G1 X129.775 Y99.370 E0.01674
G1 X141.036 Y110.630 E0.49961
G1 X140.502 Y110.630 E0.01674
G1 X129.242 Y99.370 E0.49961
G1 X128.708 Y99.370 E0.01674
G1 X139.968 Y110.630 E0.49961
G1 X139.435 Y110.630 E0.01674
G1 X128.174 Y99.370 E0.49961
G1 X127.641 Y99.370 E0.01674
G1 X138.901 Y110.630 E0.49961
G1 X138.367 Y110.630 E0.01674
G1 X127.107 Y99.370 E0.49961
G1 X126.574 Y99.370 E0.01674
G1 X137.834 Y110.630 E0.49961
G1 X137.300 Y110.630 E0.01674
G1 X126.040 Y99.370 E0.49961
G1 X125.506 Y99.370 E0.01674
G1 X136.767 Y110.630 E0.49961
G1 X136.233 Y110.630 E0.01674
G1 X124.973 Y99.370 E0.49961
G1 X124.439 Y99.370 E0.01674
G1 X135.699 Y110.630 E0.49961
G1 X135.166 Y110.630 E0.01674
G1 X123.906 Y99.370 E0.49961
G1 X123.372 Y99.370 E0.01674
G1 X134.632 Y110.630 E0.49961
G1 X134.099 Y110.630 E0.01674
G1 X122.838 Y99.370 E0.49961
G1 X122.305 Y99.370 E0.01674
G1 X133.565 Y110.630 E0.49961
G1 X133.031 Y110.630 E0.01674
G1 X121.771 Y99.370 E0.49961
G1 X121.238 Y99.370 E0.01674
G1 X132.498 Y110.630 E0.49961
G1 X131.964 Y110.630 E0.01674
G1 X120.704 Y99.370 E0.49961
G1 X120.170 Y99.370 E0.01674
G1 X131.431 Y110.630 E0.49961
G1 X130.897 Y110.630 E0.01674
G1 X119.637 Y99.370 E0.49961
G1 X119.103 Y99.370 E0.01674
G1 X130.363 Y110.630 E0.49961
G1 X129.830 Y110.630 E0.01674
G1 X118.570 Y99.370 E0.49961
G1 X118.036 Y99.370 E0.01674
G1 X129.296 Y110.630 E0.49961
G1 X128.763 Y110.630 E0.01674
G1 X117.502 Y99.370 E0.49961
G1 X116.969 Y99.370 E0.01674
G1 X128.229 Y110.630 E0.49961
G1 X127.695 Y110.630 E0.01674
G1 X116.435 Y99.370 E0.49961
G1 X115.902 Y99.370 E0.01674
G1 X127.162 Y110.630 E0.49961
G1 X126.628 Y110.630 E0.01674
G1 X115.368 Y99.370 E0.49961
G1 X114.834 Y99.370 E0.01674
G1 X126.095 Y110.630 E0.49961
G1 X125.561 Y110.630 E0.01674
G1 X114.301 Y99.370 E0.49961
G1 X113.767 Y99.370 E0.01674
G1 X125.027 Y110.630 E0.49961
G1 X124.494 Y110.630 E0.01674
G1 X113.234 Y99.370 E0.49961
G1 X112.700 Y99.370 E0.01674
G1 X123.960 Y110.630 E0.49961
G1 X123.427 Y110.630 E0.01674
G1 X112.166 Y99.370 E0.49961
G1 X111.633 Y99.370 E0.01674
G1 X122.893 Y110.630 E0.49961
G1 X122.359 Y110.630 E0.01674
G1 X111.099 Y99.370 E0.49961
G1 X110.566 Y99.370 E0.01674
G1 X121.826 Y110.630 E0.49961
G1 X121.292 Y110.630 E0.01674
G1 X110.032 Y99.370 E0.49961
G1 X109.498 Y99.370 E0.01674
G1 X120.759 Y110.630 E0.49961
G1 X120.225 Y110.630 E0.01674
G1 X108.965 Y99.370 E0.49961
G1 X108.431 Y99.370 E0.01674
G1 X119.691 Y110.630 E0.49961
G1 X119.158 Y110.630 E0.01674
G1 X107.898 Y99.370 E0.49961
G1 X107.364 Y99.370 E0.01674
G1 X118.624 Y110.630 E0.49961
G1 X118.091 Y110.630 E0.01674
G1 X106.830 Y99.370 E0.49961
G1 X106.297 Y99.370 E0.01674
G1 X117.557 Y110.630 E0.49961
G1 X117.023 Y110.630 E0.01674
G1 X105.763 Y99.370 E0.49961
M73 Q9 S30
G1 X105.230 Y99.370 E0.01674
G1 X116.490 Y110.630 E0.49961
M73 P9 R29
G1 X115.956 Y110.630 E0.01674
G1 X104.696 Y99.370 E0.49961
G1 X104.162 Y99.370 E0.01674
G1 X115.423 Y110.630 E0.49961
G1 X114.889 Y110.630 E0.01674
G1 X103.629 Y99.370 E0.49961
G1 X103.095 Y99.370 E0.01674
G1 X114.355 Y110.630 E0.49961
G1 X113.822 Y110.630 E0.01674
G1 X102.562 Y99.370 E0.49961
