; generated by PrusaSlicer 2.0.0+ on 2020-01-13 at 19:48:06

; 

; external perimeters extrusion width = 0.45mm
; perimeters extrusion width = 0.45mm
; infill extrusion width = 0.45mm
; solid infill extrusion width = 0.45mm
; top infill extrusion width = 0.40mm
; first layer extrusion width = 0.42mm

M73 P0 R60
M73 Q0 S62
M201 X1000 Y1000 Z1000 E5000 ; sets maximum accelerations, mm/sec^2
M203 X200 Y200 Z12 E120 ; sets maximum feedrates, mm/sec
M204 P1250 R1250 T1250 ; sets acceleration (P, T) and retract acceleration (R), mm/sec^2
M205 X8.00 Y8.00 Z0.40 E1.50 ; sets the jerk limits, mm/sec
M205 S0 T0 ; sets the minimum extruding and travel feed rate, mm/sec
M107
M115 U3.8.1 ; tell printer latest fw version
G90 ; use absolute coordinates
M83 ; extruder relative mode
M104 S215 ; set extruder temp
M140 S60 ; set bed temp
M190 S60 ; wait for bed temp
M109 S215 ; wait for extruder temp
G28 W ; home all without mesh bed level
G80 ; mesh bed leveling
G1 Y-3.0 F1000.0 ; go outside print area
G92 E0.0
G1 X60.0 E9.0 F1000.0 ; intro line
M73 Q0 S62
M73 P0 R60
G1 X100.0 E12.5 F1000.0 ; intro line
G92 E0.0
M221 S95
M900 K30 ; Filament gcode
G21 ; set units to millimeters
G90 ; use absolute coordinates
M83 ; use relative distances for extrusion
;BEFORE_LAYER_CHANGE
G92 E0.0
;0.2


G1 E-0.80000 F2100.00000
G1 Z0.600 F10800.000
;AFTER_LAYER_CHANGE
;0.2
G1 X55.591 Y97.509
G1 Z0.200
G1 E0.80000 F2100.00000
M204 S1000
G1 F1200
G1 X56.290 Y97.322 E0.02270
G1 X193.504 Y97.311 E4.30224
G1 X194.334 Y97.476 E0.02653
G1 X195.039 Y97.944 E0.02653
G1 X195.514 Y98.644 E0.02653
G1 X195.688 Y99.472 E0.02653
G1 X195.664 Y110.824 E0.35593
G1 X195.442 Y111.509 E0.02259
G1 X195.006 Y112.088 E0.02270
G1 X194.406 Y112.492 E0.02270
G1 X193.710 Y112.678 E0.02259
G1 X56.471 Y112.688 E4.30305
G1 X55.693 Y112.535 E0.02484
G1 X55.019 Y112.112 E0.02496
G1 X54.541 Y111.475 E0.02496
G1 X54.322 Y110.710 E0.02496
G1 X54.335 Y99.183 E0.36142
G1 X54.556 Y98.494 E0.02270
G1 X54.991 Y97.915 E0.02270
G1 X55.541 Y97.543 E0.02082
G1 F8640
G1 X56.290 Y97.322 E-0.18032
G1 X58.800 Y97.321 E-0.57968
G1 E-0.04000 F2100.00000
G1 Z0.800 F10800.000
G1 X63.573 Y102.874
G1 Z0.200
G1 E0.80000 F2100.00000
G1 F1200
G1 X65.382 Y101.560 E0.07010
G1 X67.618 Y101.560 E0.07010
G1 X69.427 Y102.874 E0.07010
G1 X70.117 Y105.000 E0.07010
G1 X69.427 Y107.126 E0.07010
G1 X67.618 Y108.440 E0.07010
G1 X65.382 Y108.440 E0.07010
G1 X63.573 Y107.126 E0.07010
G1 X62.883 Y105.000 E0.07010
G1 X63.555 Y102.931 E0.06821
G1 X63.894 Y103.107 F10800.000
G1 F1200
G1 X65.505 Y101.937 E0.06241
G1 X67.495 Y101.937 E0.06242
G1 X69.106 Y103.107 E0.06241
G1 X69.721 Y105.000 E0.06241
G1 X69.106 Y106.893 E0.06241
G1 X67.495 Y108.063 E0.06241
G1 X65.505 Y108.063 E0.06242
G1 X63.894 Y106.893 E0.06241
G1 X63.279 Y105.000 E0.06241
G1 X63.876 Y103.164 E0.06053
G1 X63.732 Y102.741 F10800.000
G1 F8640
G1 X65.505 Y101.937 E-0.47091
G1 X66.757 Y101.937 E-0.28909
G1 E-0.04000 F2100.00000
G1 Z0.800 F10800.000
G1 X179.883 Y105.000
G1 Z0.200
G1 E0.80000 F2100.00000
G1 F1200
G1 X180.573 Y102.874 E0.07010
G1 X182.382 Y101.560 E0.07010
G1 X184.618 Y101.560 E0.07010
G1 X186.427 Y102.874 E0.07010
G1 X187.117 Y105.000 E0.07010
G1 X186.427 Y107.126 E0.07010
G1 X184.618 Y108.440 E0.07010
G1 X182.382 Y108.440 E0.07010
G1 X180.573 Y107.126 E0.07010
G1 X179.901 Y105.057 E0.06821
G1 X180.279 Y105.000 F10800.000
G1 F1200
G1 X180.894 Y103.107 E0.06241
G1 X182.505 Y101.937 E0.06241
G1 X184.495 Y101.937 E0.06242
G1 X186.106 Y103.107 E0.06241
G1 X186.721 Y105.000 E0.06241
G1 X186.106 Y106.893 E0.06241
G1 X184.495 Y108.063 E0.06241
G1 X182.505 Y108.063 E0.06242
G1 X180.894 Y106.893 E0.06241
G1 X180.298 Y105.057 E0.06053
G1 X179.933 Y104.800 F10800.000
G1 F8640
G1 X180.894 Y103.107 E-0.47090
G1 X181.907 Y102.371 E-0.28910
G1 E-0.04000 F2100.00000
G1 Z0.800 F10800.000
G1 X192.913 Y109.913
G1 Z0.200
G1 E0.80000 F2100.00000
G1 F1200
G1 X57.087 Y109.913 E4.25872
G1 X57.087 Y100.087 E0.30808
G1 X192.913 Y100.087 E4.25872
G1 X192.913 Y109.853 E0.30620
G1 X193.290 Y110.290 F10800.000
G1 F1200
G1 X56.710 Y110.290 E4.28237
G1 X56.710 Y99.710 E0.33173
G1 X193.290 Y99.710 E4.28237
G1 X193.290 Y110.230 E0.32985
G1 X192.890 Y110.280 F10800.000
G1 F8640
G1 X189.999 Y110.231 E-0.76000
G1 E-0.04000 F2100.00000
G1 Z0.800 F10800.000
G1 X192.800 Y100.964
G1 Z0.200
G1 E0.80000 F2100.00000
G1 F1200
G1 X192.206 Y100.370 E0.02637
G1 X191.672 Y100.370 E0.01677
G1 X192.630 Y101.328 E0.04256
G1 X192.630 Y101.862 E0.01677
G1 X191.138 Y100.370 E0.06628
G1 X190.604 Y100.370 E0.01677
G1 X192.630 Y102.396 E0.08999
G1 X192.630 Y102.930 E0.01677
G1 X190.070 Y100.370 E0.11371
G1 X189.536 Y100.370 E0.01677
G1 X192.630 Y103.464 E0.13743
G1 X192.630 Y103.999 E0.01677
G1 X189.001 Y100.370 E0.16115
G1 X188.467 Y100.370 E0.01677
G1 X192.630 Y104.533 E0.18487
G1 X192.630 Y105.067 E0.01677
G1 X187.933 Y100.370 E0.20859
G1 X187.399 Y100.370 E0.01677
G1 X192.630 Y105.601 E0.23231
G1 X192.630 Y106.135 E0.01677
G1 X186.865 Y100.370 E0.25603
G1 X186.331 Y100.370 E0.01677
G1 X192.630 Y106.669 E0.27975
G1 X192.630 Y107.203 E0.01677
G1 X185.797 Y100.370 E0.30347
G1 X185.263 Y100.370 E0.01677
G1 X192.630 Y107.737 E0.32719
M73 Q1 S61
G1 X192.630 Y108.271 E0.01677
G1 X184.729 Y100.370 E0.35091
M73 P1 R59
G1 X184.195 Y100.370 E0.01677
G1 X192.630 Y108.805 E0.37463
G1 X192.630 Y109.340 E0.01677
G1 X186.993 Y103.703 E0.25034
G1 X187.250 Y104.494 E0.02612
G1 X192.387 Y109.630 E0.22811
G1 X191.853 Y109.630 E0.01677
G1 X187.367 Y105.145 E0.19918
G1 X187.237 Y105.548 E0.01331
G1 X191.318 Y109.630 E0.18128
G1 X190.784 Y109.630 E0.01677
G1 X187.106 Y105.951 E0.16338
G1 X186.975 Y106.354 E0.01331
G1 X190.250 Y109.630 E0.14547
G1 X189.716 Y109.630 E0.01677
G1 X186.844 Y106.758 E0.12757
G1 X186.713 Y107.161 E0.01331
G1 X189.182 Y109.630 E0.10967
G1 X188.648 Y109.630 E0.01677
G1 X186.465 Y107.448 E0.09693
G1 X186.156 Y107.672 E0.01201
G1 X188.114 Y109.630 E0.08695
G1 X187.580 Y109.630 E0.01677
G1 X185.847 Y107.897 E0.07697
G1 X185.537 Y108.122 E0.01201
G1 X187.046 Y109.630 E0.06699
G1 X186.512 Y109.630 E0.01677
G1 X185.228 Y108.347 E0.05700
G1 X184.919 Y108.571 E0.01201
G1 X185.977 Y109.630 E0.04702
G1 X185.443 Y109.630 E0.01677
G1 X184.536 Y108.723 E0.04028
G1 X184.002 Y108.723 E0.01677
G1 X184.909 Y109.630 E0.04028
G1 X184.375 Y109.630 E0.01677
G1 X183.468 Y108.723 E0.04028
G1 X182.934 Y108.723 E0.01677
G1 X183.841 Y109.630 E0.04028
G1 X183.307 Y109.630 E0.01677
G1 X181.924 Y108.247 E0.06142
G1 F8640
G1 X183.307 Y109.630 E-0.45159
G1 X183.841 Y109.630 E-0.12332
G1 X183.274 Y109.063 E-0.18509
G1 E-0.04000 F2100.00000
G1 Z0.800 F10800.000
G1 X184.957 Y101.666
G1 Z0.200
G1 E0.80000 F2100.00000
G1 F1200
G1 X183.660 Y100.370 E0.05757
G1 X183.126 Y100.370 E0.01677
G1 X184.033 Y101.277 E0.04028
G1 X183.499 Y101.277 E0.01677
G1 X182.592 Y100.370 E0.04028
G1 X182.058 Y100.370 E0.01677
G1 X182.965 Y101.277 E0.04028
G1 X182.431 Y101.277 E0.01677
G1 X181.524 Y100.370 E0.04028
G1 X180.990 Y100.370 E0.01677
G1 X182.063 Y101.442 E0.04763
G1 X181.753 Y101.667 E0.01201
G1 X180.456 Y100.370 E0.05761
G1 X179.922 Y100.370 E0.01677
G1 X181.444 Y101.892 E0.06760
G1 X181.134 Y102.117 E0.01201
G1 X179.388 Y100.370 E0.07758
G1 X178.854 Y100.370 E0.01677
G1 X180.825 Y102.341 E0.08756
G1 X180.516 Y102.566 E0.01201
G1 X178.319 Y100.370 E0.09754
G1 X177.785 Y100.370 E0.01677
G1 X180.279 Y102.864 E0.11076
G1 X180.148 Y103.267 E0.01331
G1 X177.251 Y100.370 E0.12866
G1 X176.717 Y100.370 E0.01677
G1 X180.017 Y103.670 E0.14657
G1 X179.886 Y104.073 E0.01331
G1 X176.183 Y100.370 E0.16447
G1 X175.649 Y100.370 E0.01677
G1 X179.755 Y104.476 E0.18237
G1 X179.625 Y104.880 E0.01331
G1 X175.115 Y100.370 E0.20028
G1 X174.581 Y100.370 E0.01677
G1 X179.766 Y105.555 E0.23026
G1 X180.023 Y106.346 E0.02612
G1 X174.047 Y100.370 E0.26539
G1 X173.513 Y100.370 E0.01677
G1 X182.773 Y109.630 E0.41125
G1 X182.239 Y109.630 E0.01677
G1 X172.978 Y100.370 E0.41125
G1 X172.444 Y100.370 E0.01677
G1 X181.705 Y109.630 E0.41125
G1 X181.171 Y109.630 E0.01677
G1 X171.910 Y100.370 E0.41125
G1 X171.376 Y100.370 E0.01677
G1 X180.636 Y109.630 E0.41125
G1 X180.102 Y109.630 E0.01677
G1 X170.842 Y100.370 E0.41125
G1 X170.308 Y100.370 E0.01677
G1 X179.568 Y109.630 E0.41125
G1 X179.034 Y109.630 E0.01677
G1 X169.774 Y100.370 E0.41125
G1 X169.240 Y100.370 E0.01677
G1 X178.500 Y109.630 E0.41125
G1 X177.966 Y109.630 E0.01677
G1 X168.706 Y100.370 E0.41125
G1 X168.172 Y100.370 E0.01677
G1 X177.432 Y109.630 E0.41125
G1 X176.898 Y109.630 E0.01677
G1 X167.638 Y100.370 E0.41125
G1 X167.103 Y100.370 E0.01677
G1 X176.364 Y109.630 E0.41125
G1 X175.830 Y109.630 E0.01677
G1 X166.569 Y100.370 E0.41125
G1 X166.035 Y100.370 E0.01677
G1 X175.295 Y109.630 E0.41125
G1 X174.761 Y109.630 E0.01677
G1 X165.501 Y100.370 E0.41125
G1 X164.967 Y100.370 E0.01677
G1 X174.227 Y109.630 E0.41125
G1 X173.693 Y109.630 E0.01677
G1 X164.433 Y100.370 E0.41125
G1 X163.899 Y100.370 E0.01677
G1 X173.159 Y109.630 E0.41125
G1 X172.625 Y109.630 E0.01677
G1 X163.365 Y100.370 E0.41125
G1 X162.831 Y100.370 E0.01677
G1 X172.091 Y109.630 E0.41125
G1 X171.557 Y109.630 E0.01677
G1 X162.297 Y100.370 E0.41125
G1 X161.762 Y100.370 E0.01677
G1 X171.023 Y109.630 E0.41125
G1 X170.489 Y109.630 E0.01677
G1 X161.228 Y100.370 E0.41125
G1 X160.694 Y100.370 E0.01677
G1 X169.955 Y109.630 E0.41125
G1 X169.420 Y109.630 E0.01677
G1 X160.160 Y100.370 E0.41125
G1 X159.626 Y100.370 E0.01677
G1 X168.886 Y109.630 E0.41125
G1 X168.352 Y109.630 E0.01677
G1 X159.092 Y100.370 E0.41125
G1 X158.558 Y100.370 E0.01677
G1 X167.818 Y109.630 E0.41125
G1 X167.284 Y109.630 E0.01677
G1 X158.024 Y100.370 E0.41125
G1 X157.490 Y100.370 E0.01677
G1 X166.750 Y109.630 E0.41125
G1 X166.216 Y109.630 E0.01677
G1 X156.956 Y100.370 E0.41125
G1 X156.421 Y100.370 E0.01677
G1 X165.682 Y109.630 E0.41125
G1 X165.148 Y109.630 E0.01677
G1 X155.887 Y100.370 E0.41125
G1 X155.353 Y100.370 E0.01677
G1 X164.614 Y109.630 E0.41125
G1 X164.079 Y109.630 E0.01677
G1 X154.819 Y100.370 E0.41125
G1 X154.285 Y100.370 E0.01677
G1 X163.545 Y109.630 E0.41125
G1 X163.011 Y109.630 E0.01677
G1 X153.751 Y100.370 E0.41125
G1 X153.217 Y100.370 E0.01677
G1 X162.477 Y109.630 E0.41125
G1 X161.943 Y109.630 E0.01677
G1 X152.683 Y100.370 E0.41125
G1 X152.149 Y100.370 E0.01677
G1 X161.409 Y109.630 E0.41125
G1 X160.875 Y109.630 E0.01677
G1 X151.615 Y100.370 E0.41125
G1 X151.080 Y100.370 E0.01677
G1 X160.341 Y109.630 E0.41125
G1 X159.807 Y109.630 E0.01677
G1 X150.546 Y100.370 E0.41125
G1 X150.012 Y100.370 E0.01677
G1 X159.273 Y109.630 E0.41125
G1 X158.738 Y109.630 E0.01677
G1 X149.478 Y100.370 E0.41125
G1 X148.944 Y100.370 E0.01677
G1 X158.204 Y109.630 E0.41125
G1 X157.670 Y109.630 E0.01677
G1 X148.410 Y100.370 E0.41125
G1 X147.876 Y100.370 E0.01677
G1 X157.136 Y109.630 E0.41125
G1 X156.602 Y109.630 E0.01677
G1 X147.342 Y100.370 E0.41125
G1 X146.808 Y100.370 E0.01677
G1 X156.068 Y109.630 E0.41125
G1 X155.534 Y109.630 E0.01677
G1 X146.274 Y100.370 E0.41125
G1 X145.740 Y100.370 E0.01677
G1 X155.000 Y109.630 E0.41125
G1 X154.466 Y109.630 E0.01677
G1 X145.205 Y100.370 E0.41125
G1 X144.671 Y100.370 E0.01677
G1 X153.932 Y109.630 E0.41125
G1 X153.397 Y109.630 E0.01677
G1 X144.137 Y100.370 E0.41125
G1 X143.603 Y100.370 E0.01677
G1 X152.863 Y109.630 E0.41125
G1 X152.329 Y109.630 E0.01677
G1 X143.069 Y100.370 E0.41125
G1 X142.535 Y100.370 E0.01677
G1 X151.795 Y109.630 E0.41125
G1 X151.261 Y109.630 E0.01677
G1 X142.001 Y100.370 E0.41125
G1 X141.467 Y100.370 E0.01677
G1 X150.727 Y109.630 E0.41125
G1 X150.193 Y109.630 E0.01677
G1 X140.933 Y100.370 E0.41125
G1 X140.399 Y100.370 E0.01677
G1 X149.659 Y109.630 E0.41125
G1 X149.125 Y109.630 E0.01677
G1 X139.864 Y100.370 E0.41125
G1 X139.330 Y100.370 E0.01677
G1 X148.591 Y109.630 E0.41125
G1 X148.057 Y109.630 E0.01677
G1 X138.796 Y100.370 E0.41125
G1 X138.262 Y100.370 E0.01677
G1 X147.522 Y109.630 E0.41125
G1 X146.988 Y109.630 E0.01677
G1 X137.728 Y100.370 E0.41125
G1 X137.194 Y100.370 E0.01677
G1 X146.454 Y109.630 E0.41125
G1 X145.920 Y109.630 E0.01677
G1 X136.660 Y100.370 E0.41125
G1 X136.126 Y100.370 E0.01677
G1 X145.386 Y109.630 E0.41125
G1 X144.852 Y109.630 E0.01677
G1 X135.592 Y100.370 E0.41125
G1 X135.058 Y100.370 E0.01677
G1 X144.318 Y109.630 E0.41125
M73 Q3 S60
G1 X143.784 Y109.630 E0.01677
G1 X134.523 Y100.370 E0.41125
M73 P3 R58
G1 X133.989 Y100.370 E0.01677
G1 X143.250 Y109.630 E0.41125
G1 X142.716 Y109.630 E0.01677
G1 X133.455 Y100.370 E0.41125
G1 X132.921 Y100.370 E0.01677
G1 X142.181 Y109.630 E0.41125
G1 X141.647 Y109.630 E0.01677
G1 X132.387 Y100.370 E0.41125
G1 X131.853 Y100.370 E0.01677
G1 X141.113 Y109.630 E0.41125
G1 X140.579 Y109.630 E0.01677
G1 X131.319 Y100.370 E0.41125
G1 X130.785 Y100.370 E0.01677
G1 X140.045 Y109.630 E0.41125
G1 X139.511 Y109.630 E0.01677
G1 X130.251 Y100.370 E0.41125
G1 X129.717 Y100.370 E0.01677
G1 X138.977 Y109.630 E0.41125
G1 X138.443 Y109.630 E0.01677
G1 X129.182 Y100.370 E0.41125
G1 X128.648 Y100.370 E0.01677
G1 X137.909 Y109.630 E0.41125
G1 X137.375 Y109.630 E0.01677
G1 X128.114 Y100.370 E0.41125
G1 X127.580 Y100.370 E0.01677
G1 X136.840 Y109.630 E0.41125
G1 X136.306 Y109.630 E0.01677
G1 X127.046 Y100.370 E0.41125
G1 X126.512 Y100.370 E0.01677
G1 X135.772 Y109.630 E0.41125
G1 X135.238 Y109.630 E0.01677
G1 X125.978 Y100.370 E0.41125
G1 X125.444 Y100.370 E0.01677
G1 X134.704 Y109.630 E0.41125
G1 X134.170 Y109.630 E0.01677
G1 X124.910 Y100.370 E0.41125
G1 X124.376 Y100.370 E0.01677
G1 X133.636 Y109.630 E0.41125
G1 X133.102 Y109.630 E0.01677
G1 X123.842 Y100.370 E0.41125
G1 X123.307 Y100.370 E0.01677
G1 X132.568 Y109.630 E0.41125
G1 X132.034 Y109.630 E0.01677
G1 X122.773 Y100.370 E0.41125
G1 X122.239 Y100.370 E0.01677
G1 X131.499 Y109.630 E0.41125
G1 X130.965 Y109.630 E0.01677
G1 X121.705 Y100.370 E0.41125
G1 X121.171 Y100.370 E0.01677
G1 X130.431 Y109.630 E0.41125
G1 X129.897 Y109.630 E0.01677
G1 X120.637 Y100.370 E0.41125
G1 X120.103 Y100.370 E0.01677
G1 X129.363 Y109.630 E0.41125
G1 X128.829 Y109.630 E0.01677
G1 X119.569 Y100.370 E0.41125
G1 X119.035 Y100.370 E0.01677
G1 X128.295 Y109.630 E0.41125
G1 X127.761 Y109.630 E0.01677
G1 X118.501 Y100.370 E0.41125
G1 X117.966 Y100.370 E0.01677
G1 X127.227 Y109.630 E0.41125
G1 X126.693 Y109.630 E0.01677
G1 X117.432 Y100.370 E0.41125
G1 X116.898 Y100.370 E0.01677
G1 X126.159 Y109.630 E0.41125
G1 X125.624 Y109.630 E0.01677
G1 X116.364 Y100.370 E0.41125
G1 X115.830 Y100.370 E0.01677
G1 X125.090 Y109.630 E0.41125
G1 X124.556 Y109.630 E0.01677
G1 X115.296 Y100.370 E0.41125
G1 X114.762 Y100.370 E0.01677
G1 X124.022 Y109.630 E0.41125
G1 X123.488 Y109.630 E0.01677
G1 X114.228 Y100.370 E0.41125
G1 X113.694 Y100.370 E0.01677
G1 X122.954 Y109.630 E0.41125
G1 X122.420 Y109.630 E0.01677
G1 X113.160 Y100.370 E0.41125
G1 X112.625 Y100.370 E0.01677
G1 X121.886 Y109.630 E0.41125
G1 X121.352 Y109.630 E0.01677
G1 X112.091 Y100.370 E0.41125
G1 X111.557 Y100.370 E0.01677
G1 X120.818 Y109.630 E0.41125
G1 X120.283 Y109.630 E0.01677
G1 X111.023 Y100.370 E0.41125
G1 X110.489 Y100.370 E0.01677
G1 X119.749 Y109.630 E0.41125
G1 X119.215 Y109.630 E0.01677
G1 X109.955 Y100.370 E0.41125
G1 X109.421 Y100.370 E0.01677
G1 X118.681 Y109.630 E0.41125
G1 X118.147 Y109.630 E0.01677
G1 X108.887 Y100.370 E0.41125
G1 X108.353 Y100.370 E0.01677
G1 X117.613 Y109.630 E0.41125
G1 X117.079 Y109.630 E0.01677
G1 X107.819 Y100.370 E0.41125
G1 X107.284 Y100.370 E0.01677
G1 X116.545 Y109.630 E0.41125
G1 X116.011 Y109.630 E0.01677
G1 X106.750 Y100.370 E0.41125
G1 X106.216 Y100.370 E0.01677
G1 X115.477 Y109.630 E0.41125
G1 X114.942 Y109.630 E0.01677
G1 X105.682 Y100.370 E0.41125
G1 X105.148 Y100.370 E0.01677
G1 X114.408 Y109.630 E0.41125
G1 X113.874 Y109.630 E0.01677
G1 X104.614 Y100.370 E0.41125
G1 X104.080 Y100.370 E0.01677
G1 X113.340 Y109.630 E0.41125
G1 X112.806 Y109.630 E0.01677
G1 X103.546 Y100.370 E0.41125
G1 X103.012 Y100.370 E0.01677
G1 X112.272 Y109.630 E0.41125
G1 X111.738 Y109.630 E0.01677
G1 X102.478 Y100.370 E0.41125
G1 X101.944 Y100.370 E0.01677
G1 X111.204 Y109.630 E0.41125
G1 X110.670 Y109.630 E0.01677
G1 X101.409 Y100.370 E0.41125
G1 X100.875 Y100.370 E0.01677
G1 X110.136 Y109.630 E0.41125
